X:3115
T:Leken hinnes Karolina Viklund
L:1/8
M:3/4
O:Sweden
R:Pols
Z:John Chambers
%%TUNEURL: http://www.leeds.ac.uk/music/Info/RRTuneBk/gettune/00000ec6.html
%%ID:00000ec6
K:D
|: "D"{g}f>e d2 d>A | ~f>e d2- d>d | "Em"e>f g>f g>a | "A7"~g>f e4 | \
"A7"{f}e>d c2 c>d | c>B A2 A>B | "D"A>G FA "A7"d>f | (3ece "D"d4 ::
"Em"{d}e>f g>f g>a | b>a g4 | "D"f>e d>c d>f | "A7"a>f e4 | \
"A7"{f}e>d c2 c>d | c>B A2 A>B | "D"A>G FA "A7"d>f | (3ece "D"d4 :|
